communes/995.svg

<?xml version="1.0" encoding="UTF-8" standalone="no"?>
<svg
   xmlns:dc="http://purl.org/dc/elements/1.1/"
   xmlns:cc="http://web.resource.org/cc/"
   xmlns:rdf="http://www.w3.org/1999/02/22-rdf-syntax-ns#"
   xmlns:svg="http://www.w3.org/2000/svg"
   xmlns="http://www.w3.org/2000/svg"
   xmlns:xlink="http://www.w3.org/1999/xlink"
   xmlns:sodipodi="http://sodipodi.sourceforge.net/DTD/sodipodi-0.dtd"
   xmlns:inkscape="http://www.inkscape.org/namespaces/inkscape"
   height="763"
   width="603"
   version="1.0"
   id="svg20"
   sodipodi:version="0.32"
   inkscape:version="0.44.1"
   sodipodi:docname="Wiedlisbach-coat of arms.svg"
   sodipodi:docbase="F:\Mis Documentos\Mis imágenes\Encyclopédie\Escudos de Suiza">
  <metadata
     id="metadata31">
    <rdf:RDF>
      <cc:Work
         rdf:about="">
        <dc:format>image/svg+xml</dc:format>
        <dc:type
           rdf:resource="http://purl.org/dc/dcmitype/StillImage" />
        <dc:date>07-AUG-2006</dc:date>
        <dc:creator>
          <cc:Agent>
            <dc:title>Jérôme BLUM (wagner51)</dc:title>
          </cc:Agent>
        </dc:creator>
        <cc:license
           rdf:resource="http://creativecommons.org/licenses/GPL/2.0/" />
        <dc:coverage />
        <dc:description>Gabarit pour le Projet:Blasons de WIkipédia</dc:description>
        <dc:subject>
          <rdf:Bag>
            <rdf:li>blason suisse modèle gabarit projet blasons</rdf:li>
          </rdf:Bag>
        </dc:subject>
        <dc:language>fr</dc:language>
        <dc:title>Gabrit d'un blason suisse</dc:title>
      </cc:Work>
      <cc:License
         rdf:about="http://creativecommons.org/licenses/GPL/2.0/">
        <cc:permits
           rdf:resource="http://web.resource.org/cc/Reproduction" />
        <cc:permits
           rdf:resource="http://web.resource.org/cc/Distribution" />
        <cc:requires
           rdf:resource="http://web.resource.org/cc/Notice" />
        <cc:permits
           rdf:resource="http://web.resource.org/cc/DerivativeWorks" />
        <cc:requires
           rdf:resource="http://web.resource.org/cc/ShareAlike" />
        <cc:requires
           rdf:resource="http://web.resource.org/cc/SourceCode" />
      </cc:License>
    </rdf:RDF>
  </metadata>
  <defs
     id="defs29">
    <linearGradient
       id="linearGradient2893">
      <stop
         style="stop-color:#ffffff;stop-opacity:0.3137255;"
         offset="0"
         id="stop2895" />
      <stop
         id="stop2897"
         offset="0.19"
         style="stop-color:#ffffff;stop-opacity:0.25098041;" />
      <stop
         style="stop-color:#6b6b6b;stop-opacity:0.1254902;"
         offset="0.60000002"
         id="stop2901" />
      <stop
         style="stop-color:#000000;stop-opacity:0.1254902;"
         offset="1"
         id="stop2899" />
    </linearGradient>
    <linearGradient
       id="linearGradient2955">
      <stop
         style="stop-color:white;stop-opacity:0;"
         offset="0"
         id="stop2965" />
      <stop
         style="stop-color:black;stop-opacity:0.64583331;"
         offset="1"
         id="stop2959" />
    </linearGradient>
    <radialGradient
       inkscape:collect="always"
       xlink:href="#linearGradient2893"
       id="radialGradient3236"
       gradientUnits="userSpaceOnUse"
       gradientTransform="matrix(1.215027,1.531577e-24,1.464684e-23,1.266667,-839.1924,-490.4894)"
       cx="858.04236"
       cy="579.93323"
       fx="858.04236"
       fy="579.93323"
       r="300" />
  </defs>
  <sodipodi:namedview
     inkscape:window-height="682"
     inkscape:window-width="1024"
     inkscape:pageshadow="2"
     inkscape:pageopacity="0.0"
     guidetolerance="10.0"
     gridtolerance="10.0"
     objecttolerance="10.0"
     borderopacity="1.0"
     bordercolor="#666666"
     pagecolor="#ffffff"
     id="base"
     inkscape:zoom="0.48301887"
     inkscape:cx="365.91298"
     inkscape:cy="358.50045"
     inkscape:window-x="-4"
     inkscape:window-y="-4"
     inkscape:current-layer="layer2"
     showgrid="true" />
  <desc
     id="desc22">Coat of Arms of Canton of Freiburg (Fribourg)</desc>
  <g
     inkscape:groupmode="layer"
     id="layer1"
     inkscape:label="Fond écu"
     sodipodi:insensitive="true">
    <path
       id="path1899"
       d="M 1.5,1.49998 L 1.5,460.3679 C 1.5,626.6785 135.81456,761.5 301.49999,761.5 C 467.18543,761.5 601.5,626.6785 601.5,460.3679 L 601.5,1.49998 L 1.5,1.49998 z "
       style="fill:white;fill-opacity:1" />
  </g>
  <g
     inkscape:groupmode="layer"
     id="layer2"
     inkscape:label="Meubles"
     sodipodi:insensitive="true">
    <g
       id="g11080">
      <path
         id="path9261"
         d="M 1.5,1.5 L 1.5,48.65625 L 5.53125,166.65625 C 104.97914,240.03192 180.50138,198.55652 183.59375,356.625 C 183.86979,494.91556 369.78984,417.36707 367.34375,572.375 C 366.13704,650.55976 388.94334,693.61968 461.28125,715.28125 C 522.72747,676.3914 569.1347,615.73184 589.75,544.09375 C 564.81031,526.49939 547.58853,500.05816 545.40625,463.9375 C 540.86179,388.71831 531.11953,334.04214 420.6875,315.28125 C 345.22015,302.46036 345.48623,257.91962 342.28125,221.21875 C 329.23433,71.815265 272.68205,87.200636 212.28125,62.03125 C 181.61552,51.668546 171.54238,21.847203 158.5625,1.5 L 1.5,1.5 z "
         style="fill:#2b5df2;fill-opacity:1;fill-rule:evenodd;stroke:black;stroke-width:2.64819837px;stroke-linecap:butt;stroke-linejoin:miter;stroke-opacity:1" />
      <path
         id="path10148"
         d="M 1.90625,59.78125 L 1.5,166.6875 C 100.94783,240.06314 180.47013,198.52527 183.5625,356.59375 C 183.83859,494.88428 369.82108,417.33582 367.375,572.34375 C 366.16824,650.5285 388.94673,693.61478 461.28125,715.28125 C 475.76834,706.11224 489.4199,695.72877 502.09375,684.28125 C 426.39392,663.03499 402.7074,619.82301 403.9375,540.125 C 406.38357,385.11707 220.4011,462.66552 220.125,324.375 C 217.03263,166.30652 139.31808,210.56435 42.0625,134.46875 C 20.603093,117.67828 8.7766767,86.58583 1.90625,59.78125 z "
         style="fill:#2b5df2;fill-opacity:1;fill-rule:evenodd;stroke:black;stroke-width:2.64819837px;stroke-linecap:butt;stroke-linejoin:miter;stroke-opacity:1" />
      <path
         id="path10171"
         d="M 97.4375,1.5 C 113.25266,26.714556 138.19065,73.407198 170.53125,88.875 C 245.12916,124.55341 297.66092,99.329857 300.53125,248.09375 C 301.24027,284.83904 319.78523,326.52861 378.875,342.15625 C 487.27593,370.82536 499.11178,400.2734 503.65625,490.78125 C 505.64325,529.74679 535.50832,565.17358 575.53125,583.0625 C 581.67283,569.26415 586.80327,554.92754 590.84375,540.125 C 565.02481,526.28112 547.46138,500.3599 545.4375,463.90625 C 541.2165,387.87846 532.76285,337.39205 420.65625,315.3125 C 353.20338,302.02757 341.7319,256.33942 342.3125,221.21875 C 344.76432,74.300577 272.7133,87.200635 212.3125,62.03125 C 181.64683,51.668518 171.54366,21.849011 158.5625,1.5 L 97.4375,1.5 z "
         style="fill:#2b5df2;fill-opacity:1;fill-rule:evenodd;stroke:black;stroke-width:2.64819837px;stroke-linecap:butt;stroke-linejoin:miter;stroke-opacity:1" />
    </g>
  </g>
  <g
     inkscape:groupmode="layer"
     id="layer3"
     inkscape:label="Reflet final"
     style="display:inline"
     sodipodi:insensitive="true">
    <path
       style="fill:url(#radialGradient3236);fill-opacity:1"
       d="M 1.5,1.5 L 1.5,460.3679 C 1.5,626.67854 135.81454,761.5 301.49993,761.5 C 467.1854,761.5 601.5,626.67854 601.5,460.3679 L 601.5,1.5 L 1.5,1.5 z "
       id="path2346" />
  </g>
  <g
     inkscape:groupmode="layer"
     id="layer4"
     inkscape:label="Contour final"
     style="display:inline"
     sodipodi:insensitive="true">
    <path
       style="fill:none;fill-opacity:1;stroke:black;stroke-width:3;stroke-miterlimit:4;stroke-dasharray:none;stroke-opacity:1"
       d="M 1.5,1.5 L 1.5,460.36794 C 1.5,626.67854 135.81454,761.5 301.49993,761.5 C 467.1854,761.5 601.5,626.67854 601.5,460.36794 L 601.5,1.5 L 1.5,1.5 z "
       id="path3239" />
  </g>
</svg>

<?xml version="1.0" encoding="UTF-8"?>
<svg version="1.0" viewBox="0 0 603 763" xmlns="http://www.w3.org/2000/svg" xmlns:cc="http://web.resource.org/cc/" xmlns:dc="http://purl.org/dc/elements/1.1/" xmlns:rdf="http://www.w3.org/1999/02/22-rdf-syntax-ns#" xmlns:xlink="http://www.w3.org/1999/xlink">
<metadata>
<rdf:RDF>
<cc:Work rdf:about="">
<dc:format>image/svg+xml</dc:format>
<dc:type rdf:resource="http://purl.org/dc/dcmitype/StillImage"/>
<dc:date>07-AUG-2006</dc:date>
<dc:creator>
<cc:Agent>
<dc:title>Jérôme BLUM (wagner51)</dc:title>
</cc:Agent>
</dc:creator>
<cc:license rdf:resource="http://creativecommons.org/licenses/GPL/2.0/"/>
<dc:coverage/>
<dc:description>Gabarit pour le Projet:Blasons de WIkipédia</dc:description>
<dc:subject>
<rdf:Bag>
<rdf:li>blason suisse modèle gabarit projet blasons</rdf:li>
</rdf:Bag>
</dc:subject>
<dc:language>fr</dc:language>
<dc:title>Gabrit d'un blason suisse</dc:title>
</cc:Work>
<cc:License rdf:about="http://creativecommons.org/licenses/GPL/2.0/">
<cc:permits rdf:resource="http://web.resource.org/cc/Reproduction"/>
<cc:permits rdf:resource="http://web.resource.org/cc/Distribution"/>
<cc:requires rdf:resource="http://web.resource.org/cc/Notice"/>
<cc:permits rdf:resource="http://web.resource.org/cc/DerivativeWorks"/>
<cc:requires rdf:resource="http://web.resource.org/cc/ShareAlike"/>
<cc:requires rdf:resource="http://web.resource.org/cc/SourceCode"/>
</cc:License>
</rdf:RDF>
</metadata>
<defs>
<radialGradient id="a" cx="858.04" cy="579.93" r="300" gradientTransform="matrix(1.215 1.5316e-24 1.4647e-23 1.2667 -839.19 -490.49)" gradientUnits="userSpaceOnUse">
<stop stop-color="#fff" stop-opacity=".31373" offset="0"/>
<stop stop-color="#fff" stop-opacity=".25098" offset=".19"/>
<stop stop-color="#6b6b6b" stop-opacity=".12549" offset=".6"/>
<stop stop-opacity=".12549" offset="1"/>
</radialGradient>
</defs>
<desc>Coat of Arms of Canton of Freiburg (Fribourg)</desc>
<path d="m1.5 1.5v458.87c0 166.31 134.31 301.13 300 301.13 165.69 0 300-134.82 300-301.13v-458.87h-600z" fill="#fff"/>
<g fill="#2b5df2" fill-rule="evenodd" stroke="#000" stroke-width="2.6482px">
<path d="m1.5 1.5v47.156l4.0312 118c99.448 73.376 174.97 31.9 178.06 189.97 0.27604 138.29 186.2 60.742 183.75 215.75-1.2067 78.185 21.6 121.24 93.938 142.91 61.446-38.89 107.85-99.549 128.47-171.19-24.94-17.594-42.161-44.036-44.344-80.156-4.5445-75.219-14.287-129.9-124.72-148.66-75.467-12.821-75.201-57.362-78.406-94.062-13.047-149.4-69.599-134.02-130-159.19-30.666-10.363-40.739-40.184-53.719-60.531h-157.06z"/>
<path d="m1.9062 59.781-0.40625 106.91c99.448 73.376 178.97 31.838 182.06 189.91 0.27609 138.29 186.26 60.742 183.81 215.75-1.2068 78.185 21.572 121.27 93.906 142.94 14.487-9.169 28.139-19.552 40.812-31-75.7-21.246-99.386-64.458-98.156-144.16 2.4461-155.01-183.54-77.459-183.81-215.75-3.0924-158.07-80.807-113.81-178.06-189.91-21.459-16.79-33.286-47.883-40.156-74.688z"/>
<path d="m97.438 1.5c15.815 25.215 40.753 71.907 73.094 87.375 74.598 35.678 127.13 10.455 130 159.22 0.70902 36.745 19.254 78.435 78.344 94.062 108.4 28.669 120.24 58.117 124.78 148.62 1.987 38.966 31.852 74.392 71.875 92.281 6.1416-13.798 11.272-28.135 15.312-42.938-25.819-13.844-43.382-39.765-45.406-76.219-4.221-76.028-12.675-126.51-124.78-148.59-67.453-13.285-78.924-58.973-78.344-94.094 2.4518-146.92-69.599-134.02-130-159.19-30.666-10.363-40.769-40.182-53.75-60.531h-61.125z"/>
</g>
<g>
<path d="m1.5 1.5v458.87c0 166.31 134.31 301.13 300 301.13 165.69 0 300-134.82 300-301.13v-458.87h-600z" fill="url(#a)"/>
<path d="m1.5 1.5v458.87c0 166.31 134.31 301.13 300 301.13 165.69 0 300-134.82 300-301.13v-458.87h-600z" fill="none" stroke="#000" stroke-width="3"/>
</g>
</svg>
